boxicons/svg/regular/bx-calendar-check.svg

<svg xmlns="http://www.w3.org/2000/svg" width="24" height="24" viewBox="0 0 24 24"><path d="M19 4h-2V2h-2v2H9V2H7v2H5c-1.103 0-2 .897-2 2v14c0 1.103.897 2 2 2h14c1.103 0 2-.897 2-2V6c0-1.103-.897-2-2-2zm.002 16H5V8h14l.002 12z"/><path d="m11 17.414 5.707-5.707-1.414-1.414L11 14.586l-2.293-2.293-1.414 1.414z"/></svg>

<svg xmlns="http://www.w3.org/2000/svg" width="24" height="24" viewBox="0 0 24 24"><path d="M19,4h-2V2h-2v2H9V2H7v2H5C3.897,4,3,4.897,3,6v2v12c0,1.103,0.897,2,2,2h14c1.103,0,2-0.897,2-2V8V6 C21,4.897,20.103,4,19,4z M19.002,20H5V8h14L19.002,20z"/><path d="M11 17.414L16.707 11.707 15.293 10.293 11 14.586 8.707 12.293 7.293 13.707z"/></svg>
